;START_OF_HEADER
;HEADER_VERSION:0.1
;FLAVOR:Griffin
;GENERATOR.NAME:Cura_SteamEngine
;GENERATOR.VERSION:5.11.0
;GENERATOR.BUILD_DATE:2025-10-23
;TARGET_MACHINE.NAME:Ultimaker S5
;EXTRUDER_TRAIN.0.INITIAL_TEMPERATURE:205
;EXTRUDER_TRAIN.0.MATERIAL.VOLUME_USED:5292
;EXTRUDER_TRAIN.0.MATERIAL.GUID:44a029e6-e31b-4c9e-a12f-9282e29a92ff
;EXTRUDER_TRAIN.0.NOZZLE.DIAMETER:0.4
;EXTRUDER_TRAIN.0.NOZZLE.NAME:AA 0.4
;BUILD_PLATE.INITIAL_TEMPERATURE:60
;BUILD_VOLUME.TEMPERATURE:28
;PRINT.TIME:1505
;PRINT.GROUPS:1
;PRINT.SIZE.MIN.X:127.89
;PRINT.SIZE.MIN.Y:97.92
;PRINT.SIZE.MIN.Z:0.2
;PRINT.SIZE.MAX.X:330
;PRINT.SIZE.MAX.Y:237
;PRINT.SIZE.MAX.Z:20.001
;SLICE_UUID:ba553328-324e-4f70-8df6-e7cce308fc16
;END_OF_HEADER
;Generated with Cura_SteamEngine 5.11.0
T0

M82 ;absolute extrusion mode
G92 E0
M190 S60
M104 S205
M109 S205
G280 S1
G0 Z20.001
G1 F2700 E-6.5
;LAYER_COUNT:25
G0 F9000 X330 Y237
;LAYER:0
M106 S255
M204 S1500
M205 X30 Y30
G0 X201.405 Y138.429 Z0.2
;TYPE:SKIRT
G1 F2700 E0
G1 F1800 X198.844 Y141.158 E0.04693
G1 X195.762 Y142.08 E0.08727
G1 X134.069 Y142.08 E0.86093
G1 X131.908 Y141.486 E0.88903
G1 X129.783 Y139.857 E0.92261
G1 X128.402 Y137.742 E0.95429
G1 X127.89 Y135.55 E0.98251
G1 X127.89 Y103.734 E1.3815
G1 X128.739 Y101.507 E1.41139
G1 X130.251 Y99.732 E1.44063
G1 X132.232 Y98.43 E1.47035
G1 X134.416 Y97.92 E1.49848
G1 X196.296 Y97.92 E2.27448
G1 X198.523 Y98.769 E2.30437
G1 X200.298 Y100.281 E2.33361
G1 X201.6 Y102.262 E2.36333
G1 X202.11 Y104.446 E2.39146
G1 X202.11 Y135.972 E2.78681
G1 X201.405 Y138.429 E2.81886
G0 F9000 X201.048 Y138.224
G1 F1800 X198.625 Y140.807 E2.86327
G1 X195.704 Y141.68 E2.90151
G1 X134.124 Y141.68 E3.67374
G1 X132.087 Y141.12 E3.70023
G1 X130.082 Y139.583 E3.73192
G1 X128.776 Y137.583 E3.76187
G1 X128.29 Y135.502 E3.78867
G1 X128.29 Y103.809 E4.18611
G1 X129.09 Y101.711 E4.21427
G1 X130.517 Y100.036 E4.24186
G1 X132.391 Y98.804 E4.26999
G1 X134.464 Y98.32 E4.29668
G1 X196.221 Y98.32 E5.07114
G1 X198.319 Y99.12 E5.0993
G1 X199.994 Y100.547 E5.12689
G1 X201.226 Y102.421 E5.15501
G1 X201.71 Y104.494 E5.18171
G1 X201.71 Y135.918 E5.57578
G1 X201.048 Y138.224 E5.60586
G0 F9000 X200.691 Y138.019
G1 F1800 X198.407 Y140.456 E5.64775
G1 X195.647 Y141.28 E5.68387
G1 X134.179 Y141.28 E6.4547
G1 X132.266 Y140.754 E6.47958
G1 X130.381 Y139.309 E6.50937
G1 X129.15 Y137.424 E6.5376
G1 X128.69 Y135.454 E6.56297
G1 X128.69 Y103.884 E6.95887
G1 X129.44 Y101.917 E6.98527
G1 X130.785 Y100.338 E7.01128
G1 X132.55 Y99.178 E7.03776
G1 X134.512 Y98.72 E7.06303
G1 X196.146 Y98.72 E7.83594
G1 X198.113 Y99.47 E7.86234
G1 X199.692 Y100.815 E7.88835
G1 X200.852 Y102.58 E7.91484
G1 X201.31 Y104.542 E7.94011
G1 X201.31 Y135.864 E8.33289
G1 X200.691 Y138.019 E8.36101
G0 F9000 X200.333 Y137.816
G1 F1800 X198.19 Y140.105 E8.40033
G1 X195.59 Y140.88 E8.43436
G1 X134.234 Y140.88 E9.20378
G1 X132.445 Y140.388 E9.22705
G1 X130.68 Y139.035 E9.25494
G1 X129.524 Y137.265 E9.28145
G1 X129.09 Y135.406 E9.30539
G1 X129.09 Y103.959 E9.69975
G1 X129.791 Y102.121 E9.72442
G1 X131.051 Y100.642 E9.74878
G1 X132.709 Y99.552 E9.77366
G1 X134.56 Y99.12 E9.7975
G1 X196.071 Y99.12 E10.56887
G1 X197.909 Y99.821 E10.59354
G1 X199.388 Y101.081 E10.6179
G1 X200.478 Y102.739 E10.64279
G1 X200.91 Y104.59 E10.66662
G1 X200.91 Y135.809 E11.05812
G1 X200.333 Y137.816 E11.08431
G0 F9000 X199.976 Y137.613
G1 F1800 X197.973 Y139.753 E11.12107
G1 X195.533 Y140.48 E11.15299
G1 X134.289 Y140.48 E11.92102
G1 X132.624 Y140.022 E11.94267
G1 X130.979 Y138.761 E11.96866
G1 X129.897 Y137.103 E11.99349
G1 X129.49 Y135.362 E12.01591
G1 X129.49 Y104.034 E12.40878
G1 X130.141 Y102.327 E12.43169
G1 X131.319 Y100.944 E12.45447
G1 X132.868 Y99.926 E12.47772
G1 X134.608 Y99.52 E12.50012
G1 X195.996 Y99.52 E13.26995
G1 X197.703 Y100.171 E13.29286
G1 X199.086 Y101.349 E13.31564
G1 X200.104 Y102.898 E13.33889
G1 X200.51 Y104.638 E13.36129
G1 X200.51 Y135.755 E13.75151
G1 X199.976 Y137.613 E13.77576
G0 F9000 X199.619 Y137.41
G1 F1800 X197.756 Y139.401 E13.80995
G1 X195.476 Y140.08 E13.83978
G1 X134.344 Y140.08 E14.6064
G1 X132.803 Y139.656 E14.62644
G1 X131.278 Y138.487 E14.65054
G1 X130.271 Y136.944 E14.67365
G1 X129.89 Y135.314 E14.69464
G1 X129.89 Y104.109 E15.08596
G1 X130.492 Y102.531 E15.10714
G1 X131.585 Y101.248 E15.12828
G1 X133.027 Y100.3 E15.14992
G1 X134.656 Y99.92 E15.17089
G1 X195.921 Y99.92 E15.93918
G1 X197.499 Y100.522 E15.96036
G1 X198.782 Y101.615 E15.98149
G1 X199.73 Y103.057 E16.00314
G1 X200.11 Y104.686 E16.02411
G1 X200.11 Y135.701 E16.41305
G1 X199.619 Y137.41 E16.43535
G0 F9000 X199.262 Y137.207
G1 F1800 X197.539 Y139.049 E16.46698
G1 X195.419 Y139.68 E16.49472
G1 X134.399 Y139.68 E17.25993
G1 X132.982 Y139.29 E17.27836
G1 X131.577 Y138.213 E17.30056
G1 X130.645 Y136.785 E17.32195
G1 X130.29 Y135.266 E17.34151
G1 X130.29 Y104.184 E17.73129
G1 X130.842 Y102.737 E17.75071
G1 X131.853 Y101.55 E17.77026
G1 X133.186 Y100.674 E17.79027
G1 X134.704 Y100.32 E17.80981
G1 X195.846 Y100.32 E18.57656
G1 X197.293 Y100.872 E18.59598
G1 X198.48 Y101.883 E18.61553
G1 X199.356 Y103.216 E18.63553
G1 X199.71 Y104.734 E18.65508
G1 X199.71 Y135.647 E19.04274
G1 X199.262 Y137.207 E19.06309
G0 F9000 X198.905 Y137.004
G1 F1800 X197.322 Y138.697 E19.09216
G1 X195.362 Y139.28 E19.1178
G1 X134.454 Y139.28 E19.88161
G1 X133.161 Y138.924 E19.89843
G1 X131.876 Y137.939 E19.91874
G1 X131.019 Y136.626 E19.9384
G1 X130.69 Y135.218 E19.95653
G1 X130.69 Y104.259 E20.34477
G1 X131.193 Y102.941 E20.36246
G1 X132.119 Y101.854 E20.38037
G1 X133.345 Y101.048 E20.39876
G1 X134.752 Y100.72 E20.41688
G1 X195.771 Y100.72 E21.18208
G1 X197.089 Y101.223 E21.19977
G1 X198.176 Y102.149 E21.21768
G1 X198.982 Y103.375 E21.23608
G1 X199.31 Y104.782 E21.2542
G1 X199.31 Y135.593 E21.64058
G1 X198.905 Y137.004 E21.65899
G0 F9000 X198.548 Y136.801
G1 F1800 X197.105 Y138.345 E21.68549
G1 X195.305 Y138.88 E21.70904
G1 X134.509 Y138.88 E22.47144
G1 X133.34 Y138.558 E22.48665
G1 X132.175 Y137.665 E22.50506
G1 X131.393 Y136.467 E22.523
G1 X131.09 Y135.17 E22.5397
G1 X131.09 Y104.334 E22.9264
G1 X131.543 Y103.147 E22.94233
G1 X132.387 Y102.156 E22.95865
G1 X133.504 Y101.422 E22.97541
G1 X134.8 Y101.12 E22.9921
G1 X195.696 Y101.12 E23.75576
G1 X196.883 Y101.573 E23.77169
G1 X197.874 Y102.417 E23.78802
G1 X198.608 Y103.534 E23.80478
G1 X198.91 Y104.83 E23.82146
G1 X198.91 Y135.539 E24.20657
G1 X198.548 Y136.801 E24.22303
G0 F9000 X198.191 Y136.596
G1 F1800 X196.888 Y137.993 E24.24699
G1 X195.248 Y138.48 E24.26844
G1 X134.564 Y138.48 E25.02944
G1 X133.519 Y138.192 E25.04303
G1 X132.474 Y137.391 E25.05955
G1 X131.767 Y136.308 E25.07576
G1 X131.49 Y135.122 E25.09104
G1 X131.49 Y104.409 E25.47619
G1 X131.893 Y103.353 E25.49036
G1 X132.655 Y102.458 E25.5051
G1 X133.663 Y101.796 E25.52023
G1 X134.848 Y101.52 E25.53549
G1 X195.621 Y101.52 E26.2976
G1 X196.677 Y101.923 E26.31178
G1 X197.572 Y102.685 E26.32652
G1 X198.234 Y103.693 E26.34164
G1 X198.51 Y104.878 E26.3569
G1 X198.51 Y135.485 E26.74072
G1 X198.191 Y136.596 E26.75522
G0 F9000 X197.833 Y136.393
G1 F1800 X196.671 Y137.641 E26.7766
G1 X195.191 Y138.08 E26.79596
G1 X134.619 Y138.08 E27.55555
G1 X133.698 Y137.826 E27.56754
G1 X132.773 Y137.117 E27.58215
G1 X132.141 Y136.149 E27.59665
G1 X131.89 Y135.074 E27.61049
G1 X131.89 Y104.484 E27.9941
G1 X132.243 Y103.559 E28.00652
G1 X132.924 Y102.759 E28.01969
G1 X133.82 Y102.171 E28.03313
G1 X134.896 Y101.92 E28.04699
G1 X195.546 Y101.92 E28.80756
G1 X196.471 Y102.273 E28.81998
G1 X197.271 Y102.954 E28.83315
G1 X197.859 Y103.85 E28.84659
G1 X198.11 Y104.926 E28.86045
G1 X198.11 Y135.427 E29.24294
G1 X197.833 Y136.393 E29.25554
G0 F9000 X197.474 Y136.192
G1 F1800 X196.453 Y137.29 E29.27435
G1 X195.132 Y137.68 E29.29162
G1 X134.675 Y137.68 E30.04977
G1 X133.879 Y137.46 E30.06013
G1 X133.071 Y136.841 E30.07289
G1 X132.515 Y135.99 E30.08564
G1 X132.29 Y135.026 E30.09805
G1 X132.29 Y104.559 E30.48012
G1 X132.593 Y103.765 E30.49078
G1 X133.191 Y103.062 E30.50235
G1 X133.98 Y102.545 E30.51418
G1 X134.944 Y102.32 E30.5266
G1 X195.471 Y102.32 E31.28563
G1 X196.265 Y102.623 E31.29628
G1 X196.968 Y103.221 E31.30786
G1 X197.485 Y104.01 E31.31969
G1 X197.71 Y104.974 E31.3321
G1 X197.71 Y135.369 E31.71327
G1 X197.474 Y136.192 E31.724
G0 F9000 X197.115 Y135.991
G1 F1800 X196.235 Y136.939 E31.74022
G1 X195.073 Y137.28 E31.75541
G1 X134.675 Y137.28 E32.51282
G1 X134.122 Y137.142 E32.51997
G1 X133.369 Y136.565 E32.53187
G1 X132.889 Y135.831 E32.54286
G1 X132.69 Y134.978 E32.55385
G1 X132.69 Y104.634 E32.93437
G1 X132.943 Y103.971 E32.94327
G1 X133.458 Y103.365 E32.95325
G1 X134.139 Y102.919 E32.96345
G1 X134.992 Y102.72 E32.97444
G1 X195.396 Y102.72 E33.73193
G1 X196.059 Y102.973 E33.74083
G1 X196.665 Y103.488 E33.7508
G1 X197.111 Y104.169 E33.76101
G1 X197.31 Y105.022 E33.77199
G1 X197.31 Y135.311 E34.15183
G1 X197.115 Y135.991 E34.1607
G0 F9000 X196.757 Y135.789
G1 F1800 X196.017 Y136.588 E34.17436
G1 X195.016 Y136.88 E34.18743
G1 X134.675 Y136.88 E34.94413
G1 X134.3 Y136.774 E34.94902
G1 X133.667 Y136.289 E34.95902
G1 X133.263 Y135.672 E34.96827
G1 X133.09 Y134.93 E34.97782
G1 X133.09 Y104.634 E35.35774
G1 X133.254 Y104.223 E35.36329
G1 X133.677 Y103.7 E35.37173
G1 X134.298 Y103.293 E35.38104
G1 X135.04 Y103.12 E35.39059
G1 X195.396 Y103.12 E36.14748
G1 X195.807 Y103.284 E36.15303
G1 X196.33 Y103.707 E36.16146
G1 X196.737 Y104.328 E36.17078
G1 X196.91 Y105.07 E36.18033
G1 X196.91 Y135.311 E36.55956
G1 X196.757 Y135.789 E36.56586
G0 F9000 X196.463 Y135.518
G1 F1800 X195.799 Y136.237 E36.57813
G1 X194.96 Y136.48 E36.58908
G1 X134.675 Y136.48 E37.34508
G1 X134.43 Y136.396 E37.34833
G1 X133.993 Y136.058 E37.35526
G1 X133.651 Y135.575 E37.36268
G1 X133.49 Y134.93 E37.37102
G1 X133.49 Y104.709 E37.75
G1 X133.572 Y104.466 E37.75321
G1 X133.909 Y104.026 E37.76016
G1 X134.395 Y103.681 E37.76764
G1 X135.04 Y103.52 E37.77597
G1 X195.321 Y103.52 E38.53192
G1 X195.564 Y103.602 E38.53514
G1 X196.004 Y103.939 E38.54209
G1 X196.349 Y104.425 E38.54956
G1 X196.51 Y105.07 E38.5579
G1 X196.51 Y135.311 E38.93713
G1 X196.463 Y135.518 E38.93979
G0 F9000 X196.11 Y135.311
G1 F1800 X195.579 Y135.886 E38.94961
G1 X194.96 Y136.08 E38.95774
G1 X134.675 Y136.08 E39.71374
G1 X134.238 Y135.742 E39.72067
G1 X134.037 Y135.47 E39.72491
G1 X133.89 Y134.93 E39.73193
G1 X133.89 Y104.709 E40.11091
G1 X134.227 Y104.269 E40.11786
G1 X134.5 Y104.067 E40.12212
G1 X135.04 Y103.92 E40.12914
G1 X195.321 Y103.92 E40.88508
G1 X195.761 Y104.257 E40.89203
G1 X195.963 Y104.53 E40.89629
G1 X196.11 Y105.07 E40.90331
G1 X196.11 Y135.311 E41.28254
G0 F9000 X195.31 Y135.047
G1 F1800 X195.161 Y135.216 E41.28537
G1 X194.96 Y135.28 E41.28801
G1 X134.923 Y135.28 E42.0409
G1 X134.754 Y135.131 E42.04373
G1 X134.69 Y134.93 E42.04637
G1 X134.69 Y104.953 E42.42229
G1 X134.839 Y104.784 E42.42512
G1 X135.04 Y104.72 E42.42776
G1 X195.077 Y104.72 E43.18065
G1 X195.246 Y104.869 E43.18348
G1 X195.31 Y105.07 E43.18612
G1 X195.31 Y135.047 E43.56204
G0 F9000 X195.71 Y135.18
G1 F1800 X195.317 Y135.584 E43.56911
G1 X194.96 Y135.68 E43.57375
G1 X134.798 Y135.68 E44.3282
G1 X134.489 Y135.431 E44.33318
G1 X134.373 Y135.252 E44.33585
G1 X134.29 Y134.93 E44.34002
G1 X134.29 Y104.83 E44.71749
G1 X134.539 Y104.519 E44.72248
G1 X134.718 Y104.403 E44.72516
G1 X135.04 Y104.32 E44.72933
G1 X195.2 Y104.32 E45.48376
G1 X195.511 Y104.569 E45.48875
G1 X195.627 Y104.748 E45.49143
G1 X195.71 Y105.07 E45.4956
G1 X195.71 Y135.18 E45.87319
;MESH:PARCIALPARTE2-Cuerpo.stl
G0 F9000 X194.76 Y134.728
;TYPE:WALL-OUTER
G1 F1800 X194.76 Y105.268 E46.27957
G1 X135.241 Y105.269 E47.1006
G1 X135.241 Y134.727 E47.50696
G1 X194.76 Y134.728 E48.32799
G0 F9000 X194.76 Y133.928
G1 F2700 E41.82799
G0 F9000 X180.222 Y122.478
G1 F2700 E48.32799
G1 F2149.4 X180.153 Y122.184 E48.33153
G1 X180.198 Y121.366 E48.34113
G0 F9000 X178.964 Y120.698
G1 F1995.8 X178.644 Y120.72 E48.34516
G1 F2038.5 X177.826 Y120.668 E48.35525
G1 X177.247 Y120.735 E48.36243
G0 F9000 X177.26 Y118.472
G1 F1830.2 X178.238 Y118.622 E48.37587
G1 X178.888 Y118.581 E48.38472
G1 F2149.4 X179.106 Y118.648 E48.3874
G0 F9000 X178.532 Y119.582
G0 X177.353 Y119.789
G0 X175.376 Y120.22
G0 X174.417 Y120.343
G1 F2007.8 X174.667 Y121.863 E48.40663
G1 F2700 E41.90663
G0 F9000 X173.683 Y121.866
G0 X171.164 Y119.853
G0 X170.358 Y120.149
G0 X168.22 Y121.72
G0 X167.363 Y121.224
G1 F2700 E48.40663
G1 F1800 X167.738 Y120.64 E48.4162
G1 X167.993 Y119.885 E48.42719
G1 X168.581 Y119.362 E48.43805
G1 X169.071 Y118.73 E48.44908
G1 X169.347 Y118.484 E48.45418
G1 X169.169 Y117.484 E48.46819
G1 X169.13 Y116.608 E48.48029
G1 X169.231 Y116.059 E48.48799
G1 X169.427 Y115.839 E48.49205
G1 X169.879 Y115.67 E48.49871
G1 X170.067 Y115.439 E48.50282
G1 X170.425 Y115.242 E48.50845
G1 X170.751 Y115.234 E48.51295
G1 X171.09 Y115.423 E48.51831
G1 X171.33 Y115.896 E48.52562
G1 X171.885 Y115.9 E48.53328
G1 X172.228 Y116.065 E48.53853
G1 X172.488 Y116.478 E48.54526
G1 X172.528 Y117.189 E48.55508
G1 X172.479 Y118.321 E48.57071
G1 X172.91 Y118.666 E48.57833
G1 X173.342 Y119.398 E48.59005
G1 X173.811 Y119.588 E48.59703
G1 X174.271 Y119.988 E48.60544
G1 F1871.8 X174.385 Y120.266 E48.60944
G1 F1866.5 X174.434 Y119.088 E48.62518
G1 F1800 X174.689 Y117.498 E48.64739
G1 X174.783 Y116.543 E48.66063
G1 X174.926 Y116.035 E48.66791
G1 X175.3 Y115.651 E48.6753
G1 X175.852 Y115.552 E48.68304
G1 X176.513 Y115.912 E48.69342
G1 X177.058 Y115.712 E48.70143
G1 X177.936 Y115.723 E48.71354
G1 X178.877 Y115.597 E48.72664
G1 X179.271 Y115.635 E48.7321
G1 X179.721 Y115.891 E48.73924
G1 X179.925 Y116.126 E48.74353
G1 F1751.7 X180.155 Y116.651 E48.75164
G1 F1756.4 X180.159 Y117.381 E48.76193
G1 F1714.7 X180.2 Y118.153 E48.77308
G1 F1705.7 X179.877 Y118.628 E48.7814
G1 F1809.9 X179.432 Y118.763 E48.78778
G1 F1972.2 X179.106 Y118.648 E48.79217
G1 F1871.8 X179.436 Y118.913 E48.7978
G1 F1519.6 X179.58 Y120.303 E48.82026
G1 F1303.1 X179.422 Y120.563 E48.82586
G1 F1211.9 X179.881 Y120.757 E48.83564
G1 F1221.8 X180.124 Y121.02 E48.84262
G1 F1234.3 X180.13 Y120.217 E48.85813
G1 F1372.9 X180.241 Y119.998 E48.86244
G1 F1595.8 X180.768 Y119.396 E48.87475
G1 F1723.8 X180.75 Y118.844 E48.88267
G1 F1705.7 X180.638 Y118.133 E48.8931
G1 F1714.7 X180.554 Y117.313 E48.90498
G1 F1800 X180.603 Y116.337 E48.91846
G1 F1790.1 X180.827 Y115.826 E48.9262
G1 F1800 X181.193 Y115.537 E48.93263
G1 X181.502 Y115.498 E48.93692
G1 X182.073 Y115.66 E48.94511
G1 X182.37 Y115.663 E48.94921
G1 X183.117 Y115.458 E48.95989
G1 X183.892 Y115.492 E48.9706
G1 X184.765 Y115.74 E48.98311
G1 X185.544 Y115.745 E48.99386
G1 X186.044 Y115.974 E49.00145
G1 X186.186 Y116.157 E49.00464
G1 X186.206 Y115.87 E49.00861
G1 X186.533 Y115.407 E49.01643
G1 X186.986 Y115.377 E49.02269
G1 X187.254 Y115.503 E49.02678
G1 X188.096 Y115.497 E49.03839
G1 X188.395 Y115.605 E49.04278
G1 X188.673 Y115.88 E49.04817
G1 X188.962 Y116.802 E49.0615
G1 X189.202 Y116.741 E49.06492
G1 X189.886 Y116.832 E49.07444
G1 X190.009 Y116.475 E49.07964
G1 X190.206 Y116.162 E49.08475
G1 X190.484 Y115.966 E49.08944
G1 X190.844 Y115.418 E49.09848
G1 X191.264 Y115.304 E49.10449
G1 X191.582 Y115.42 E49.10916
G1 X191.879 Y115.734 E49.11512
G1 X192.373 Y115.726 E49.12193
G1 X192.721 Y115.993 E49.12798
G1 X192.896 Y116.653 E49.1374
G1 X192.824 Y117.54 E49.14968
G1 X192.786 Y118.631 E49.16474
G1 X192.43 Y119.456 E49.17713
G1 X192.301 Y120.308 E49.18902
G1 X192.05 Y121.157 E49.20123
G1 X191.709 Y121.813 E49.21143
G1 X191.517 Y122.982 E49.22777
G1 X190.655 Y123.38 E49.24087
G1 X190.188 Y123.386 E49.24731
G1 X189.799 Y123.169 E49.25346
G1 X189 Y123.415 E49.26499
G1 X188.437 Y123.454 E49.27277
